X:355
T:Reel 355
M:4/4
K:Dmaj
L:1/8
G|FADE FGAF|EA,GA, ECCB,|FADE FGAd||cAGE FDD:||2cAGE FDD2|Addc d2ed|cAAB cdec|Addc d2ed|cAGE FDDG|Addc d2ed|cAAB cde2|fdec dAAB|cAGE EDD2|
